X: 20692
T: Johnnie Sullivan's
R: reel
M: 4/4
K: Eminor
BEEGB2AB|dBAG FDDA|BEEGB2AB|dBAGE4:|
geeee2Be|defg agfd|geeee2Be|dBAFE4|
geeee2Be|defg agfd|g2eg dfed|dBAFE4||

